assets/images/legend/newcastle/ultimate.svg

<svg height="512" viewBox="0 0 135.46666 135.46667" width="512" xmlns="http://www.w3.org/2000/svg"><g fill="#273839" transform="matrix(.95813276 0 0 .95813276 2.366482 2.734487)"><g transform="matrix(14.29942626435 0 0 13.51819102649 -2423.24609253927 -1312.28457278303)"><path d="m658.42253 371.47962-3.49554 2.27442v5.39465l-2.69838 1.44184v3.31368l-1.15029.68415v-8.3267l-4.03144 2.48051v14.01185l11.37565 7.7773 11.33919-7.7773v-14.01185l-4.17419-2.48051v8.3267l-1.04065-.68415v-3.31368l-2.75912-1.44184v-5.39465zm0 7.1459 4.54398 5.91217h-2.10165v4.73712h5.31782v3.41464l-7.76015 5.2876-7.34421-4.9917v-3.65824h5.02388l-.002-5.07711h-1.85027z" transform="scale(.26458333)"/><path d="m172.56004 103.3498.00026.46914 1.64732 1.09066 1.69903-1.10796v-.45183l-1.36867-.00001v-1.8706l.28729.00046-.61765-.9095-.5933.90904h.3569l-.0165 1.8706z" fill-opacity=".5"/></g><g fill-opacity=".5"><path d="m14.078422 61.412v-24.742621l22.87159-14.125195v-9.354433l-31.2438076 19.176588v29.045661z"/><path d="m122.36791 61.572307v-24.742621l-22.871591-14.125195v-9.354433l31.243811 19.176588v29.045661z"/><path d="m14.212663 75.004369v24.742619l22.87159 14.125192v9.35444l-31.2438097-19.17659v-29.045661z"/><path d="m122.21114 75.239918v24.742623l-22.871592 14.125199v9.35443l31.243812-19.17659v-29.045662z"/></g><path d="m42.664062 116.40013v3.3569l25.158938 15.4613 24.785891-15.29449v-3.50792l-24.785891 15.52836z"/><path d="m42.478725 19.278031v-3.3569l25.158938-15.46129902 24.785891 15.29448902v3.50792l-24.785891-15.528359z"/></g></svg>

<?xml version="1.0" encoding="UTF-8" standalone="no"?>
<!-- Created with Inkscape (http://www.inkscape.org/) -->

<svg
   width="512"
   height="512"
   viewBox="0 0 135.46666 135.46667"
   version="1.1"
   id="svg826"
   inkscape:version="1.1.1 (3bf5ae0d25, 2021-09-20)"
   sodipodi:docname="Castle Wall.svg"
   xmlns:inkscape="http://www.inkscape.org/namespaces/inkscape"
   xmlns:sodipodi="http://sodipodi.sourceforge.net/DTD/sodipodi-0.dtd"
   xmlns="http://www.w3.org/2000/svg"
   xmlns:svg="http://www.w3.org/2000/svg">
  <sodipodi:namedview
     id="namedview828"
     pagecolor="#ffffff"
     bordercolor="#666666"
     borderopacity="1.0"
     inkscape:pageshadow="2"
     inkscape:pageopacity="0.0"
     inkscape:pagecheckerboard="0"
     inkscape:document-units="mm"
     showgrid="false"
     units="px"
     inkscape:zoom="0.5"
     inkscape:cx="-9"
     inkscape:cy="301"
     inkscape:window-width="1366"
     inkscape:window-height="697"
     inkscape:window-x="-8"
     inkscape:window-y="-8"
     inkscape:window-maximized="1"
     inkscape:current-layer="layer1" />
  <defs
     id="defs823">
    <style
       type="text/css"
       id="style2-3"><![CDATA[
    .fil1 {fill:#8A0020}
    .fil2 {fill:#CA003E}
    .fil0 {fill:#CB013F}
    .fil3 {fill:#ED0049}
    .fil4 {fill:#FF2D59}
   ]]></style>
  </defs>
  <g
     inkscape:label="Layer 1"
     inkscape:groupmode="layer"
     id="layer1">
    <g
       id="g6228"
       transform="matrix(0.95813276,0,0,0.95813276,2.3664818,2.7344874)">
      <g
         id="g17370"
         transform="matrix(13.972977,0,0,13.209577,-2367.3586,-1281.9245)">
        <g
           id="g1094"
           transform="matrix(1.0233629,0,0,1.0233629,-3.9996837,-2.2983379)">
          <path
             id="path5377"
             style="fill:#273839;fill-opacity:1;stroke:none;stroke-width:0.999999px;stroke-linecap:butt;stroke-linejoin:miter;stroke-opacity:1"
             d="m 658.42253,371.47962 -3.49554,2.27442 v 5.39465 l -2.69838,1.44184 v 3.31368 l -1.15029,0.68415 v -8.3267 l -4.03144,2.48051 v 14.01185 l 11.37565,7.7773 11.33919,-7.7773 v -14.01185 l -4.17419,-2.48051 v 8.3267 l -1.04065,-0.68415 v -3.31368 l -2.75912,-1.44184 v -5.39465 z m 0,7.1459 4.54398,5.91217 h -2.10165 v 4.73712 h 5.31782 v 3.41464 l -7.76015,5.2876 -7.34421,-4.9917 v -3.65824 h 5.02388 l -0.002,-5.07711 h -1.85027 z"
             sodipodi:nodetypes="cccccccccccccccccccccccccccccccc"
             transform="scale(0.26458333)" />
          <path
             style="fill:#273839;fill-opacity:0.5;stroke:none;stroke-width:0.264583px;stroke-linecap:butt;stroke-linejoin:miter;stroke-opacity:1"
             d="m 172.56004,103.3498 2.6e-4,0.46914 1.64732,1.09066 1.69903,-1.10796 v -0.45183 l -1.36867,-1e-5 v -1.8706 l 0.28729,4.6e-4 -0.61765,-0.9095 -0.5933,0.90904 h 0.3569 l -0.0165,1.8706 z"
             id="path13809"
             sodipodi:nodetypes="ccccccccccccc" />
        </g>
      </g>
      <path
         style="fill:#273839;fill-opacity:0.5;stroke:none;stroke-width:0.264583px;stroke-linecap:butt;stroke-linejoin:miter;stroke-opacity:1"
         d="M 14.078422,61.412 V 36.669379 L 36.950012,22.544184 V 13.189751 L 5.7062044,32.366339 V 61.412 Z"
         id="path4967"
         sodipodi:nodetypes="ccccccc" />
      <path
         style="fill:#273839;fill-opacity:0.5;stroke:none;stroke-width:0.264583px;stroke-linecap:butt;stroke-linejoin:miter;stroke-opacity:1"
         d="M 122.36791,61.572307 V 36.829686 L 99.496319,22.704491 v -9.354433 l 31.243811,19.176588 v 29.045661 z"
         id="path4967-5"
         sodipodi:nodetypes="ccccccc" />
      <path
         style="fill:#273839;fill-opacity:0.5;stroke:none;stroke-width:0.264583px;stroke-linecap:butt;stroke-linejoin:miter;stroke-opacity:1"
         d="m 14.212663,75.004369 v 24.742619 l 22.87159,14.125192 v 9.35444 L 5.8404433,104.05003 V 75.004369 Z"
         id="path4967-2"
         sodipodi:nodetypes="ccccccc" />
      <path
         style="fill:#273839;fill-opacity:0.5;stroke:none;stroke-width:0.264583px;stroke-linecap:butt;stroke-linejoin:miter;stroke-opacity:1"
         d="M 122.21114,75.239918 V 99.982541 L 99.339548,114.10774 v 9.35443 L 130.58336,104.28558 V 75.239918 Z"
         id="path4967-25"
         sodipodi:nodetypes="ccccccc" />
      <path
         style="fill:#273839;fill-opacity:1;stroke:none;stroke-width:0.264583px;stroke-linecap:butt;stroke-linejoin:miter;stroke-opacity:1"
         d="m 42.664062,116.40013 v 3.3569 L 67.823,135.21833 92.608891,119.92384 v -3.50792 L 67.823,131.94428 Z"
         id="path5934"
         sodipodi:nodetypes="ccccccc" />
      <path
         style="fill:#273839;fill-opacity:1;stroke:none;stroke-width:0.264583px;stroke-linecap:butt;stroke-linejoin:miter;stroke-opacity:1"
         d="m 42.478725,19.278031 v -3.3569 L 67.637663,0.45983198 92.423554,15.754321 v 3.50792 L 67.637663,3.733882 Z"
         id="path5934-1"
         sodipodi:nodetypes="ccccccc" />
    </g>
  </g>
  <style
     type="text/css"
     id="style2">
	.st0{fill:#FF0000;}
	.st1{fill:#241C1C;}
</style>
</svg>
